img/svg/icon-font/share.svg

<svg width="22" height="22" viewBox="0 0 22 22" fill="none" xmlns="http://www.w3.org/2000/svg">
<g clip-path="url(#clip0)">
<path d="M22.0408 11.1303V18.5203C22.0408 20.4155 20.499 21.9575 18.6037 21.9575H3.48001C1.58485 21.9575 0.0428467 20.4155 0.0428467 18.5203V3.39663C0.0428467 1.50131 1.58485 -0.0407004 3.48001 -0.0407004H13.319C13.7937 -0.0407004 14.1784 0.344172 14.1784 0.818675C14.1784 1.29335 13.7937 1.67805 13.319 1.67805H3.48001C2.53235 1.67805 1.76143 2.44897 1.76143 3.39663V18.5203C1.76143 19.468 2.53235 20.2389 3.48001 20.2389H18.6037C19.5513 20.2389 20.3222 19.468 20.3222 18.5203V11.1303C20.3222 10.6557 20.7069 10.271 21.1816 10.271C21.6561 10.271 22.0408 10.6557 22.0408 11.1303ZM20.0691 4.85069C20.2324 5.013 20.3224 5.22834 20.3224 5.45695C20.3224 5.68573 20.2324 5.90091 20.0691 6.06321L16.6231 9.48762C16.2865 9.82214 16.2849 10.3663 16.6194 10.7028C16.7872 10.8719 17.0081 10.9565 17.2288 10.9565C17.4479 10.9565 17.6669 10.8732 17.8346 10.7067L21.2806 7.28229C21.7709 6.79486 22.041 6.1468 22.041 5.45695C22.041 4.7671 21.7709 4.11888 21.2806 3.63162L17.8346 0.207209C17.4981 -0.127309 16.9539 -0.125631 16.6194 0.21107C16.2849 0.54777 16.2865 1.09176 16.6231 1.42628L20.0691 4.85069ZM18.2169 5.416C18.2169 4.94133 17.8322 4.55662 17.3577 4.55662C14.2591 4.55662 11.346 5.76327 9.15491 7.95434C6.96383 10.1454 5.75719 13.0586 5.75719 16.1572V16.8017C5.75719 17.2762 6.14189 17.6609 6.61656 17.6609C7.09106 17.6609 7.47577 17.2762 7.47577 16.8017V16.1572C7.47577 10.7082 11.9088 6.2752 17.3577 6.2752C17.8322 6.2752 18.2169 5.8905 18.2169 5.416Z" fill="#4C51CB"/>
</g>
<defs>
<clipPath id="clip0">
<rect width="22" height="22" fill="white"/>
</clipPath>
</defs>
</svg>

<svg width="22" height="22" fill="none" xmlns="http://www.w3.org/2000/svg"><g clip-path="url(#clip0)"><path d="M22.04 11.13v7.39a3.441 3.441 0 01-3.436 3.438H3.48A3.441 3.441 0 01.043 18.52V3.397A3.441 3.441 0 013.48-.041h9.839a.86.86 0 010 1.719H3.48a1.72 1.72 0 00-1.719 1.719V18.52a1.72 1.72 0 001.719 1.719h15.124a1.72 1.72 0 001.718-1.719v-7.39a.86.86 0 111.719 0zm-1.97-6.28a.85.85 0 010 1.213l-3.447 3.425a.86.86 0 001.212 1.219l3.446-3.425c.49-.487.76-1.135.76-1.825s-.27-1.338-.76-1.825L17.835.207a.86.86 0 10-1.212 1.22L20.07 4.85zm-1.853.566a.86.86 0 00-.86-.86 11.525 11.525 0 00-8.202 3.398 11.525 11.525 0 00-3.398 8.203v.645a.86.86 0 001.719 0v-.645c0-5.449 4.433-9.882 9.882-9.882a.86.86 0 00.859-.859z" fill="#4C51CB"/></g><defs><clipPath id="clip0"><path fill="#fff" d="M0 0h22v22H0z"/></clipPath></defs></svg>
